X:1
T:Quando bon hombre
T:Quando bon hombre
T:Gilles Braquet
C:Gilles Braquet
%%score [ 1 2 3 4 ]
L:1/8
Q:1/4=120
M:2/2
K:F
V:1 treble nm="Soprano" snm="S"
V:2 treble nm="Alto" snm="A"
V:3 treble-8 nm="Tenor" snm="T"
V:4 bass nm="Bass" snm="B"
V:1
"^Source: Le VIIième Livre des Chansons---Louvain---P.Phalèse---1564.\nEditor: André Vierendeels (06/09/09)" G2 BB A2 G2 | %1
w: Quan- do bon hom- bre|
 BABc d4 | z4 g3 g | f3 e d2 c2 | d4 z4 | z2 gg f2 e2 | e2 d4"^#" c2 | d4 z2 d2- | de f2 e2 d2 | %9
w: vie- ni del vi- no|O di-|os qual ma- ri-|do|o di- os qual|ma- * ri-|do hal-|* lo fu men- gier-|
 cA B2 A4 | z8 | de f2 e2 d2 | cA B2 A4 | z4 d3 c | B2 A2 G2 ^F2 | G4 d3 c | B2 A4 G2- | %17
w: per- * di- da||ha- lo fu men- gier|per- * di- da|o di-|os qual ma- ri-|do o di-|os qual ma-|
 G2"^#" F2 G4 |: ABcd B4 | G2 GA F2 FF | G2 GA B2 GA | B2 Bc d4 | f3 e d2 c2 | B2 A4 G2 |1 %24
w: * ri- do|a- ni- ma- li- da,|dor- lo- pi- da, la- go-|si, la go- sa, o- zi-|ga, lo- zi- ga,|o di- os qual|ma- * *|
 G2 ^F2 G4 :|2 G2 ^F2 G4- || G8 |] z8 |] %28
w: * ri- do|* ri- do.|_||
V:2
 G2 GG F2 G2 | GFGE D4 | z8 | A3 G F2 E2 | D2 D2 C2 F2- | F2 G2 B2 c2 | B2 G2 A4 | F4 G3 A | %8
w: Quan- do bon hom- bre|vie- ni del vi- no||O di- os qual|ma- ri- do, o|_ di- os qual|ma- * ri-|do hal- lo|
 B2 A2 G2 FD | E2 D2 z4 | z4 z2 GA | B2 A2 G2 FG | AF G2 z4 | G3 G F2 D2 | F3 E D2 D2 | E4 D3 E | %16
w: fu man- gier e per-|di- da||||||do o di-|
 F2 F2 D2 E2 | D4 D4 |: FDFF D4 | _E2 EE D2 DD | D2 GF G2 DF | G2 GG A4 | A3 A B2 A2 | G2 _E4 C2 |1 %24
w: os qual ma- *|ri- do,|a- ni- ma- li- da,|dor- lo- pi- da, la- go-|si, la go- sa, o- zi-|ga, lo- zi- ga,|o di- os qual|ma- * *|
 D4 D4 :|2 D4 D4- || D8 |] z8 |] %28
w: ri- do|ri- do.|_||
V:3
 z8 | z4 G2 BB | A2 G2 BABc | d4 z4 | g3 g f2 e2 | d2 c2 d2 ef | gf ed e4 | d8- | d4 z4 | z4 d3 e | %10
w: |Quan- do bon|hom- bre vie- ni del vi-|no|O di- os qual-|ma- ri- do o di-|os qual ma- * ri-|do|_|hal- lo|
 f2 e2 d2 cc | d2 A2 z2 de | ff B2 c2 d2- | d2 c2 d2 fe | d2 c2 B2 A2 | c4 f3 e | d2 c2 B2 c2 | %17
w: _ _ _ _ _|||||do o di-|os qual ma- *|
 A4 G4 |: cBAA G4 | B2 cc A2 AA | B2 Bc d2 Bc | d2 de f4- | f4 f3 e | d2 c2 B2 AG |1 A4 G4 :|2 %25
w: ri- do|a- ni- ma- li- da,|dor- lo- pi- da, la- go-|si, la- go- sa, o- zi-|ga, lo- zi- ga,|_ o di-|os qual ma- * *|ri- do|
 A4 G4- || G8 |] z8 |] %28
w: ri- do.|_||
V:4
 z8 | z4 G,2 G,G, | F,2 G,2 G,F,G,E, | D,4 z4 | B,3 B, A,3 G, | F,2 E,2 D,2 A,2 | G,2 B,2 A,4 | %7
w: |Quan- do bon|hom- bre vie- ni del vi-|no|O di- os qual|ma- ri- do o|di- os qual|
 D,4 G,4 | D,4 z4 | z2 G,3 A, B,2 | A,2 G,2 F,D, _E,2 | D,4 G,A, B,2 | A,2 G,2 F,2 D,2 | %13
w: ma- ri-|do,|hal- lo fu|_ _ _ _ _|||
 _E,2 E,2 D,2 B,,B,, | B,,2 F,2 G,2 D,2 | C,4 B,,3 B,, | B,,2 F,2 G,2 C,2 | D,4 G,4 |: %18
w: ||do o di-|os qual ma- *|ri- do|
 F,G,F,D, G,4 | _E,2 C,C, _D,2 D,D, | G,2 B,A, G,2 B,A, | G,2 G,G, D,4 | D,3 C, B,,2 F,2 | %23
w: a- ni- ma- li- da,|dor- lo- pi- da, la- go-|si, la- go- sa, o- zi-|ga, lo- zi- ga,|o di- os qual|
 G,2 C,2 _E,4 |1 %24
w: ma- * ri-|
 D,4"^Notes: original keys (edition Matthysz 1644) :Sol, Ut 2nd, Ut 3rd, Fa 3rd\n            editorial accidentals above de staff\n" G,4 :|2 %25
w: * do-|
 D,4 G,4- || G,8 |] z8 |] %28
w: * do.|_||

